build/img/app-store_logo.svg

<svg width="26" height="31" viewBox="0 0 26 31" fill="none" xmlns="http://www.w3.org/2000/svg">
<path fill-rule="evenodd" clip-rule="evenodd" d="M19.0059 0.078125C17.4561 0.143066 15.5792 1.10986 14.4678 2.40918C13.4688 3.56348 12.5967 5.40527 12.8321 7.17139C14.5616 7.30664 16.3243 6.29346 17.4014 4.99316C18.4766 3.69092 19.2042 1.8833 19.0059 0.078125ZM18.5674 30.813C20.667 30.7739 21.9971 28.9092 23.2833 27.0332C24.7696 24.8638 25.3799 22.7642 25.417 22.6548L25.4092 22.6519C25.2081 22.5698 21.3204 20.9922 21.2823 16.4316C21.2442 12.667 24.2501 10.7935 24.5821 10.5864L24.6075 10.5703C22.7979 7.92676 19.9786 7.56396 18.9737 7.52295C17.5069 7.375 16.0831 7.93457 14.921 8.39209C14.1817 8.68262 13.5479 8.93213 13.0743 8.93213C11.8585 8.93213 9.97857 7.55664 7.98736 7.59326C5.37408 7.63232 2.96197 9.11182 1.61627 11.4507C-1.10248 16.1606 0.919 23.1392 3.56744 26.958C4.86334 28.8257 6.40435 30.9277 8.43169 30.8521C9.33697 30.8159 9.9815 30.542 10.6475 30.2588C11.417 29.9312 12.2159 29.5913 13.4815 29.5913C14.6866 29.5913 15.4483 29.9209 16.1817 30.2378C16.8829 30.5405 17.5577 30.832 18.5674 30.813Z" fill="white"/>
</svg>

<svg width="26" height="31" viewBox="0 0 26 31" fill="none" xmlns="http://www.w3.org/2000/svg"><path fill-rule="evenodd" clip-rule="evenodd" d="M19.006.078c-1.55.065-3.427 1.032-4.538 2.331-1 1.154-1.871 2.996-1.636 4.762 1.73.136 3.492-.878 4.57-2.178 1.075-1.302 1.802-3.11 1.604-4.915zm-.439 30.735c2.1-.04 3.43-1.904 4.716-3.78 1.487-2.17 2.097-4.269 2.134-4.378l-.008-.003c-.2-.082-4.089-1.66-4.127-6.22-.038-3.765 2.968-5.638 3.3-5.846l.026-.016c-1.81-2.643-4.63-3.006-5.634-3.047-1.467-.148-2.89.412-4.053.87-.74.29-1.373.54-1.847.54-1.216 0-3.095-1.376-5.087-1.34-2.613.04-5.025 1.519-6.37 3.858-2.72 4.71-.698 11.688 1.95 15.507 1.296 1.868 2.837 3.97 4.865 3.894.905-.036 1.55-.31 2.216-.593.769-.328 1.568-.668 2.834-.668 1.205 0 1.966.33 2.7.647.7.303 1.376.594 2.385.575z" fill="#fff"/></svg>
